X:14955
T:Schottis fr Bingsj\"o
R:Schottische
O:Sweden
M:2/4
A:Bingsj\"o
K:D
ABAF A2d2| fgfe f2a2| g2G2 G2Bc| B2AG F2D2|\
ABAF A2d2| fgfe f2a2| gfed cABc| dedc d4|\
f2d2 AFAd | f2d2 A3f| gfed cdeg| b2a^g a>ba=g|\
f2d2 AFAd| f2d2 A3f| gfed cABc| dedc d4|]
